packages/components/icon/src/assets/icons/upload.svg

<svg width="24" height="24" viewBox="0 0 24 24" fill="none" xmlns="http://www.w3.org/2000/svg">
<path fill-rule="evenodd" clip-rule="evenodd" d="M12.0219 20.8181C10.3587 20.8181 8.82928 20.4095 7.43361 19.5924C6.03794 18.7752 4.93155 17.6688 4.1144 16.2732C3.29724 14.8775 2.88867 13.3481 2.88867 11.6848C2.88867 10.0361 3.29724 8.5175 4.1144 7.12906C4.93155 5.74062 6.03794 4.63785 7.43361 3.82069C8.82928 3.00354 10.3587 2.59497 12.0219 2.59497C13.6707 2.59497 15.1893 3.00354 16.5777 3.82069C17.9662 4.63785 19.0689 5.74062 19.8861 7.12906C20.7032 8.5175 21.1118 10.0361 21.1118 11.6848C21.1118 13.3481 20.7032 14.8775 19.8861 16.2732C19.0689 17.6688 17.9662 18.7752 16.5777 19.5924C15.1893 20.4095 13.6707 20.8181 12.0219 20.8181ZM13.0416 17.564V10.2313L16.2957 13.5505H16.4259L17.8143 12.1187C17.8432 12.1187 17.8577 12.1079 17.8577 12.0862C17.8577 12.0645 17.8432 12.0536 17.8143 12.0536L13.4104 7.67142L13.0416 7.28092V7.23753C13.0416 7.22307 13.0343 7.21584 13.0199 7.21584H12.9548L12.0219 6.2396H11.9135L10.9589 7.21584L10.525 7.67142L6.1428 12.0536C6.12834 12.0536 6.12111 12.0645 6.12111 12.0862C6.12111 12.1079 6.12834 12.1187 6.1428 12.1187L7.53123 13.5505H7.63971L10.9589 10.1879V17.564C10.9589 17.5929 10.9662 17.6074 10.9806 17.6074H13.0199C13.0343 17.6074 13.0416 17.5929 13.0416 17.564Z" fill="currentColor"/>
</svg>

<svg viewBox="0 0 24 24" fill="none" xmlns="http://www.w3.org/2000/svg"><path fill-rule="evenodd" clip-rule="evenodd" d="M12.022 20.818c-1.663 0-3.193-.409-4.588-1.226a9.132 9.132 0 0 1-3.32-3.319c-.817-1.396-1.225-2.925-1.225-4.588 0-1.649.408-3.168 1.225-4.556a9.157 9.157 0 0 1 3.32-3.308c1.395-.817 2.925-1.226 4.588-1.226 1.649 0 3.167.409 4.556 1.226a9.183 9.183 0 0 1 3.308 3.308 8.824 8.824 0 0 1 1.226 4.556c0 1.663-.409 3.192-1.226 4.588a9.158 9.158 0 0 1-3.308 3.32c-1.389.817-2.907 1.225-4.556 1.225Zm1.02-3.254v-7.333l3.254 3.32h.13l1.388-1.432c.03 0 .044-.011.044-.033 0-.021-.015-.032-.044-.032L13.41 7.67l-.368-.39v-.043c0-.015-.008-.022-.022-.022h-.065l-.933-.976h-.108l-.955.976-.434.455-4.382 4.383c-.015 0-.022.01-.022.032s.007.033.022.033L7.53 13.55h.109l3.319-3.362v7.376c0 .029.007.043.022.043h2.039c.014 0 .022-.014.022-.043Z" fill="currentColor"/></svg>
